X:1059
T:Kate Martin's Waltz
C:Joe Buchanan's Scottish Tome - Page 643.1
I:643 1
Z:Carl Allison
R:Waltz
L:1/4
M:3/4
K:G
(G/A/) | "G"{A}B A/ B/>g/ | "C"e>d G/>A/ | "G"(A/(B/) B2-) | B2 (G/>A/) |
"G"{A}B A/ B/>g/ | "C"e2 ((3e/4g/4e/4d/) | "D7"((3B/4d/4B/4 (A/) A2-) | A2 G/>A/ |
"G"{A}B>A B/>g/ | "C"e>d G/>A/ | "G"(B/(d/) d) (d/>e/) | "D7"{e}d2 (G/>A/) |
"Em"{A}B>A B/>g/ | "D7"A>G ((3G/A/B/) | "G"{ABA}G3- | G2 :|
B/>d/ | "C"{d}e>d e/>g/ | {ege}d2 G/>B/ | "D7"(B/(d/) d/)>B/d/>e/ | "G7"d2 B/>d/ |
"C"e>d e/>g/ |{ege}d2 (d/>B/) | "D7"{BdB}A3- | A>g g/>G/ | 
"G"{B}d>G g/>G/ | ""{c}e>G g/>G/ | "G"{B}d2 (d/>e/) | "D7"d2 G/>A/ | 
"Em"{A}B>A B/>g/ | "D7"A>G ((3G/A/B/) | "G"{ABA}G3- | "G7"G2 :|

